**kern	**kern
*part1	*part1
*staff2	*staff1
*I"Piano	*
*clefF4	*clefG2
*k[b-]	*k[b-]
=1	=1
8AA	16b-LL
.	16a
16GLL 16B- 16c#X 16e	16g
16GJ 16B- 16c# 16e	16ee
8GJ 8B- 8c# 8e	16dd
.	16cc#XJJ
=	=
8AA	16ddLL
.	16aa
16ALL 16d 16f	16gg
16AJ 16d 16f	16ff
8AJ 8d 8f	16ee
.	16ffJJ
=	=
8AA	16eeLL
.	16dd
16G#XLL 16Bn 16f	16cc#X
16G#J 16B 16f	16dd
8G#J 8B 8f	16ee
.	16ffJJ
=	=
8AA	16eeLL
.	16cc#X
16ALL 16c#X 16e	16a
16AJ 16c# 16e	16b-
8AJ 8c# 8e	16g
.	16aJJ)
=	=
8AA	16b-LL
.	16a
16GLL 16B- 16c#X 16e	16g
16GJ 16B- 16c# 16e	16ee
8GJ 8B- 8c# 8e	16dd
.	16cc#XJJ
=	=
8AA	16ddLL
.	16aa
16ALL 16d 16f	16gg
16AJ 16d 16f	16ff
8AJ 8d 8f	16ee
.	16ffJJ
=	=
8AA	16eeLL
.	16dd
16G#XLL 16Bn 16f	16cc#X
16G#J 16B 16f	16dd
8G#J 8B 8f	16ee
.	16ffJJ
=	=
*-	*-
!!!system-decoration: {(s1,s2)}
